src/ui/hourglass.svg

<?xml version="1.0" encoding="UTF-8"?><svg xmlns="http://www.w3.org/2000/svg" viewBox="0 0 32 32"><defs><style>.uuid-95a3ecf2-189c-4c33-9a68-b215169e26f1{fill:none;}.uuid-95a3ecf2-189c-4c33-9a68-b215169e26f1,.uuid-653d4783-fb12-4c8c-9b53-2ed31e0f29f8{stroke-width:0px;}.uuid-653d4783-fb12-4c8c-9b53-2ed31e0f29f8{fill:#151515;}</style></defs><g id="uuid-425bdd98-2a99-41e4-a213-18423af22ed6"><rect class="uuid-95a3ecf2-189c-4c33-9a68-b215169e26f1" x="0" width="32" height="32"/></g><g id="uuid-2b7589c0-332a-416a-8fa7-9e58a109aabb"><path class="uuid-653d4783-fb12-4c8c-9b53-2ed31e0f29f8" d="M26,29h-1v-3.7573c0-1.0684-.416-2.0732-1.1719-2.8286l-6.4141-6.4141,6.4141-6.4141c.7559-.7554,1.1719-1.7603,1.1719-2.8286v-3.7573h1c.5522,0,1-.4478,1-1s-.4478-1-1-1H6c-.5522,0-1,.4478-1,1s.4478,1,1,1h1v3.7573c0,1.0684.416,2.0732,1.1719,2.8286l6.4141,6.4141-6.4141,6.4141c-.7559.7554-1.1719,1.7603-1.1719,2.8286v3.7573h-1c-.5522,0-1,.4478-1,1s.4478,1,1,1h20c.5522,0,1-.4478,1-1s-.4478-1-1-1ZM23,3v3.7573c0,.0824-.0139.1621-.0237.2427h-13.9526c-.0098-.0806-.0237-.1603-.0237-.2427v-3.7573h14ZM9.5859,23.8281l6.4141-6.4141,6.4141,6.4141c.3779.3779.5859.8804.5859,1.4146v.7573h-14v-.7573c0-.5342.208-1.0366.5859-1.4146Z"/></g></svg>

<svg xmlns="http://www.w3.org/2000/svg" viewBox="0 0 32 32">
  <path d="M0 0h32v32H0z" fill="none"/>
  <path d="M26 29h-1v-3.757a3.973 3.973 0 0 0-1.172-2.829L17.414 16l6.414-6.414A3.973 3.973 0 0 0 25 6.757V3h1a1 1 0 0 0 0-2H6a1 1 0 0 0 0 2h1v3.757c0 1.069.416 2.073 1.172 2.829L14.586 16l-6.414 6.414A3.973 3.973 0 0 0 7 25.243V29H6a1 1 0 0 0 0 2h20a1 1 0 0 0 0-2ZM23 3v3.757c0 .083-.014.162-.024.243H9.024C9.014 6.92 9 6.84 9 6.757V3h14ZM9.586 23.828 16 17.414l6.414 6.414c.378.378.586.88.586 1.415V26H9v-.757c0-.534.208-1.037.586-1.415Z" fill="#151515"/>
</svg>
